X:1250
T:Brudmarsch efter Gulamåla-Viten
O:Uppland
B:Melodier från Upplands bruk och Fyris bygder häfte 2, nr. 4
R:Marsch
S:efter [[!Gulamåla-Viten]] (Jan Ersson)
Z:Nils L
M: 2/4
L: 1/16
K: C
G2 |: c2c2 Pd2cd | e2ce g4- | gf(df) (fe)ce | e2Pd2 d2BG |
G2c2 d2cd | e2ce g4- | gf(df) (fe)ce |1 e2Pd2 d2BG :|2 e2d2 d2>e2 |]
(eg)ec (eg)ec | e2g2 g4 | (fa)fd (fa)fd | f2a2 a4 | g2b2 b2ag | 
g2c'2 (c'g)eg | f2a2 (ag)fd | B2d2 (BG)Bd |1 c2e2 c2>e2 :|2 c2e2 c4 |]
(:musicend:)
(:music:)
%%beginps
/shd{	% usage: x y shd
	M 3 1.3 RM
	-1 2.5 -6.5 0 -5.5 -2.5 RC
	1 -2.5 6.5 0 5.5 2.5 RC fill}!
%%endps
%%deco head-small 0 shd 0 0 0	% small note head
